X:1
T:Son soddisfatto della semplice vita
T:Osanna all'Altissimo
T:Titolo originale: "Hosanna" . Musica e testo originali: Carl Tuttle. Trascrizione: Marco Cavallo 
T:Osanna, Osanna, Osanna all'Altissimo. Osanna, Osanna, Osanna all'Altissimo. Ti esaltiamo Signor, con le lodi del cuor, ti esaltiamo Signore Iddio, Osanna all'Altissimo. Gloria, Gloria, Gloria al Re dei Re. Gloria, Gloria, Gloria al Re dei Re. Ti esaltiamo Signor... Santo, Santo, Santo è il Re dei Re. Santo, Santo, Santo è il Re dei Re. Ti esaltiamo Signor... 
L:1/8
Q:1/4=120
M:4/4
K:G
V:1 treble nm="Piano" snm="Pno."
V:1
"C" EF G2"D" FG A2 |"G" B2"D/F#" A2"Em" G3 B |"C" cBAG"D" A3 G |"G" G6 z G |"G" G4 D3 G | %5
w: |||* 1.~O-|san- na, O-|
w: |||* 2.~|Glo- ria, *|
w: |||* 3.|San- to, *|
"D" A4 D3 A |"Em" BAGF"C" G2 B2 |"D" A6 z G |"G" G4 D3 G |"D" A4 D3 A |"Em" BAGF"C" G2 B2 | %11
w: san- na, O-|san- na all' Al- tis- si-|mo. O-|san- na, O-|san- na, O-|san- na All' Al- tis- si-|
w: Glo- ria, *|Glo- * ria al Re dei|Re *|Glo- ria, *|Glo- ria, *|Glo- * ria al Re dei|
w: San- to, *|San- * to èil Re dei|Re *|San- to, *|San- to, *|San- * to èil Re dei|
"D" A6 z2 |"C" (3z2 c2 c2"D" (3c2 B2 A2 |"G" B6 z2 |"C" (3z2 c2 c2"D" (3c2 B2 A2 |"G" B6 z2 | %16
w: mo.|||||
w: Re|Tie- sal- tia- mo Si-|gnor,|con le lo- di del|cuor,|
w: Re|||||
"C" (3z2 c2 c2"D" (3c2 B2 A2 |"G" B2"D/F#" A2"Em" G3 B |"C" cBAG"D" A3 G |"G" G6 z2 |] %20
w: ||||
w: Tie- sal- tia- mo Si-|gno- reId- dio, O-|san- na all' Al- tis- si-|mo.|
w: ||||

